X: 81
M: C|
L: 1/8
K: Am
(AG) | E2 A2 A2 B2 | c4 c2 (dc) | B3 A
e3 d c2 d2 | e6 (g>f) | e3 d c2 d2 |
(e3 f) g2 (fe) | d3 c B2 c2 | d6 (cd) |
e2 c2 d2 (cB) | c2 (BA) B2 (AG) | E2 A2

